src/scalable/apps/application-default-icon.svg

<svg width="64" height="64" version="1.1" viewBox="0 0 16.933 16.933" xmlns="http://www.w3.org/2000/svg">
 <g transform="translate(0 -280.07)" paint-order="stroke markers fill">
  <circle cx="8.4665" cy="288.53" r="7.1436" fill="#b5bbc0"/>
  <circle cx="8.467" cy="288.53" r="3.44" opacity=".15"/>
  <g fill="#fff">
   <path d="m8.467 285.62a2.91 2.91 0 0 0-2.91 2.91 2.91 2.91 0 0 0 2.91 2.91 2.91 2.91 0 0 0 2.91-2.91 2.91 2.91 0 0 0-2.91-2.91zm0 1.323a1.587 1.587 0 0 1 1.587 1.587 1.587 1.587 0 0 1-1.587 1.588 1.587 1.587 0 0 1-1.588-1.588 1.587 1.587 0 0 1 1.588-1.587z"/>
   <path d="m7.938 284.43h1.058v1.852h-1.058zm0 6.35h1.058v1.852h-1.058zm4.63-2.778v1.058h-1.852v-1.058zm-6.35 0v1.058h-1.852v-1.058zm5.522 3.056-0.747 0.747-1.31-1.31 0.748-0.747zm-4.49-4.49-0.747 0.747-1.31-1.31 0.748-0.747zm-1.309 5.237-0.748-0.748 1.31-1.31 0.748 0.749zm4.49-4.49-0.748-0.748 1.31-1.31 0.748 0.749z"/>
  </g>
 </g>
</svg>

<svg xmlns="http://www.w3.org/2000/svg" width="64" height="64" viewBox="0 0 16.933 16.933"><g transform="translate(0 -280.067)" paint-order="stroke markers fill"><circle cx="8.467" cy="288.533" r="6.879" fill="#b5bbc0"/><circle r="3.44" cy="288.533" cx="8.467" opacity=".15"/><g fill="#fff"><path d="M8.467 285.623a2.91 2.91 0 0 0-2.91 2.91 2.91 2.91 0 0 0 2.91 2.91 2.91 2.91 0 0 0 2.91-2.91 2.91 2.91 0 0 0-2.91-2.91zm0 1.323a1.587 1.587 0 0 1 1.587 1.587 1.587 1.587 0 0 1-1.587 1.588 1.587 1.587 0 0 1-1.588-1.588 1.587 1.587 0 0 1 1.588-1.587z"/><path d="M7.938 284.432h1.058v1.852H7.938zM7.938 290.782h1.058v1.852H7.938zM12.568 288.004v1.058h-1.852v-1.058zM6.218 288.004v1.058H4.366v-1.058zM11.74 291.06l-.747.747-1.31-1.31.748-.747zM7.25 286.57l-.747.747-1.31-1.31.748-.747zM5.941 291.807l-.748-.748 1.31-1.31.748.749zM10.431 287.317l-.748-.748 1.31-1.31.748.749z"/></g></g></svg>
